X: 39464
T: Tarbolton, The
R: reel
M: 4/4
K: Eminor
Bee^d ~e2 BA|GBAF GFEF|Ddd^c d2 AG|(3FED AG FD D2|
Bee^d efge|fedf edBA|GBAG FGAc|BGAF GE E2:|
|:gfef gebe|gebe afef|(3ddd fd adfd|ABAG FDDF|
GE ~E2 FEDF|~E2 ef gfed|~B3 c BAGA|BGAF GE E2:|

